!!!OTL: Sanshinian panlaile gongchandang
!!!ARE: Asia, China,ÿNeimeng Wuchuan
!! IV, 283, 2)
!!!SCT: C1865
!!!YEM: Copyright 1995, estate of Helmut Schaffrath.
**kern
*ICvox
*Ivox
*M2/4
*k[]
*C:
{8d
8g
4dd
=1
16dd
16gg
16dd
16cc
16a
16a
16a
16a
=2
8g
16r
16a
8cc
16a
16e
=3
2d}
=4
{8d
8g
4dd
=5
16dd
16gg
16dd
16cc
16a
16a
16a
16a
=6
8g
16r
16g
8cc
16cc
16a
=7
2g}
==
!!!AGN: Xiaodiao
!!!AMT: simple duple
!!!AIN: vox
!!!EED: Helmut Schaffrath
!!!EEV: 1.0
*-
